packages/calcite-ui-icons/icons/group-template-32.svg

<?xml version="1.0" encoding="UTF-8"?><svg id="icons" xmlns="http://www.w3.org/2000/svg" viewBox="0 0 32 32"><defs><style>.cls-1{fill:none;}</style></defs><rect class="cls-1" width="32" height="32"/><path d="M5,12v12h13V5h-6v-1h7v21H4v-13h1ZM6,18h5v5h-5v-5ZM7,22h3v-3h-3v3ZM20,4v21h.99982c0-.00067.00018-.00134.00018-.00201V4.00781c0-1.10156-.89752-2.00781-2.00098-2.00781h-7.99902v1h8.00098c.5517,0,.99902.44727.99902,1ZM11,17h-5v-5h5v5ZM10,13h-3v3h3v-3ZM3,25.00201v-14.00201h-1v13.99799c0,1.10358.89648,2.00201,1.99799,2.00201h14.00201v-1H3.99902c-.55176,0-.99902-.44733-.99902-.99799ZM2.05042,6H0v-1h2.05042c.08533-.59088.31317-1.13055.65509-1.5874l-1.44812-1.44812.70709-.70715,1.44812,1.44812c.45679-.34192.99652-.5697,1.5874-.65503V0h1v2.05042c.59088.08533,1.13062.31311,1.5874.65503l1.44812-1.44812.70709.70715-1.44812,1.44812c.34192.45685.56976.99652.65509,1.5874h2.05042v1h-2.05042c-.08533.59088-.31317,1.13062-.65509,1.5874l1.44812,1.44812-.70709.70709-1.44812-1.44812c-.45685.34192-.99652.56976-1.5874.65509v2.05042h-1v-2.05042c-.59088-.08533-1.13055-.31317-1.5874-.65509l-1.44812,1.44812-.70709-.70709,1.44812-1.44812c-.34192-.45679-.56976-.99652-.65509-1.5874ZM3,5.5c0,1.38019,1.11981,2.5,2.5,2.5s2.5-1.11981,2.5-2.5-1.11975-2.5-2.5-2.5-2.5,1.11975-2.5,2.5ZM12,15h5v-1h-5v1ZM17,8h-5v1h5v-1ZM12,21h5v-1h-5v1ZM28,30h3v-3h-3v3ZM29,28h1v1h-1v-1ZM28,18v2.29297l-6.70703,6.70703h-2.29297v3h3v-2.29297l6.70703-6.70703h2.29297v-3h-3ZM21,29h-1v-1h1v1ZM30,20h-1v-1h1v1Z"/></svg>

<svg xmlns="http://www.w3.org/2000/svg" viewBox="0 0 32 32"><path d="M0 0h32v32H0z" style="fill:none"/><path d="M5 12v12h13V5h-6V4h7v21H4V12zm1 6h5v5H6zm1 4h3v-3H7zM20 4v21h1V4.008A2.01 2.01 0 0 0 18.999 2H11v1h8.001A1 1 0 0 1 20 4m-9 13H6v-5h5zm-1-4H7v3h3zM3 25.002V11H2v13.998C2 26.102 2.896 27 3.998 27H18v-1H3.999A1 1 0 0 1 3 25.002M2.05 6H0V5h2.05c.086-.59.314-1.13.656-1.587L1.257 1.964l.707-.707 1.449 1.448c.456-.341.996-.57 1.587-.655V0h1v2.05c.59.086 1.13.314 1.587.655l1.449-1.448.707.707-1.449 1.449c.342.456.57.996.656 1.587H11v1H8.95a3.46 3.46 0 0 1-.656 1.587l1.449 1.449-.707.707-1.449-1.449c-.456.342-.996.57-1.587.656V11H5V8.95a3.46 3.46 0 0 1-1.587-.656L1.964 9.743l-.707-.707 1.449-1.449A3.46 3.46 0 0 1 2.05 6M3 5.5a2.5 2.5 0 1 0 5.001-.001A2.5 2.5 0 0 0 3 5.5m9 9.5h5v-1h-5zm5-7h-5v1h5zm-5 13h5v-1h-5zm16 9h3v-3h-3zm1-2h1v1h-1zm-1-10v2.293L21.293 27H19v3h3v-2.293L28.707 21H31v-3zm-7 11h-1v-1h1zm9-9h-1v-1h1z"/></svg>
